mimetypes/symbolic/text-html-symbolic.svg

<svg xmlns="http://www.w3.org/2000/svg" viewBox="0 0 16 16">
  <path fill="#bebebe" d="M10.616 9.2c.048-.396.084-.792.084-1.2s-.036-.804-.084-1.2h2.028c.096.384.156.786.156 1.2s-.06.816-.156 1.2m-3.09 3.336a9.39 9.39 0 0 0 .828-2.136h1.77a4.818 4.818 0 0 1-2.598 2.136M9.404 9.2H6.596C6.536 8.804 6.5 8.408 6.5 8s.036-.81.096-1.2h2.808c.054.39.096.792.096 1.2s-.042.804-.096 1.2M8 12.776A8.138 8.138 0 0 1 6.854 10.4h2.292A8.138 8.138 0 0 1 8 12.776M5.6 5.6H3.848A4.754 4.754 0 0 1 6.44 3.464 10.34 10.34 0 0 0 5.6 5.6m-1.752 4.8H5.6c.21.75.48 1.47.84 2.136A4.805 4.805 0 0 1 3.848 10.4m-.492-1.2C3.26 8.816 3.2 8.414 3.2 8s.06-.816.156-1.2h2.028c-.048.396-.084.792-.084 1.2s.036.804.084 1.2M8 3.218c.498.72.9 1.524 1.146 2.382H6.854A8.171 8.171 0 0 1 8 3.218M12.152 5.6h-1.77a9.39 9.39 0 0 0-.828-2.136A4.792 4.792 0 0 1 12.152 5.6M8 2C4.682 2 2 4.7 2 8a6 6 0 0 0 6 6 6 6 0 0 0 6-6 6 6 0 0 0-6-6z"/>
</svg>

<?xml version="1.0" encoding="UTF-8" standalone="no"?>
<svg
   xmlns:dc="http://purl.org/dc/elements/1.1/"
   xmlns:cc="http://creativecommons.org/ns#"
   xmlns:rdf="http://www.w3.org/1999/02/22-rdf-syntax-ns#"
   xmlns:svg="http://www.w3.org/2000/svg"
   xmlns="http://www.w3.org/2000/svg"
   xmlns:sodipodi="http://sodipodi.sourceforge.net/DTD/sodipodi-0.dtd"
   xmlns:inkscape="http://www.inkscape.org/namespaces/inkscape"
   version="1.1"
   width="16"
   height="16"
   viewBox="0 0 16 16"
   id="svg2"
   inkscape:version="0.91 r13725"
   sodipodi:docname="text-html-symbolic.svg">
  <metadata
     id="metadata10">
    <rdf:RDF>
      <cc:Work
         rdf:about="">
        <dc:format>image/svg+xml</dc:format>
        <dc:type
           rdf:resource="http://purl.org/dc/dcmitype/StillImage" />
        <dc:title></dc:title>
      </cc:Work>
    </rdf:RDF>
  </metadata>
  <defs
     id="defs8" />
  <sodipodi:namedview
     pagecolor="#ffffff"
     bordercolor="#666666"
     borderopacity="1"
     objecttolerance="10"
     gridtolerance="10"
     guidetolerance="10"
     inkscape:pageopacity="0"
     inkscape:pageshadow="2"
     inkscape:window-width="640"
     inkscape:window-height="480"
     id="namedview6"
     showgrid="false"
     inkscape:zoom="26.458333"
     inkscape:cx="-1.4551182"
     inkscape:cy="12"
     inkscape:current-layer="svg2" />
  <path
     d="M 10.616,9.2 C 10.664,8.804 10.7,8.408 10.7,8 10.7,7.592 10.664,7.196 10.616,6.8 l 2.028,0 C 12.74,7.184 12.8,7.586 12.8,8 c 0,0.414 -0.06,0.816 -0.156,1.2 m -3.09,3.336 C 9.914,11.87 10.19,11.15 10.382,10.4 l 1.77,0 c -0.576,0.99 -1.494,1.758 -2.598,2.136 M 9.404,9.2 6.596,9.2 C 6.536,8.804 6.5,8.408 6.5,8 6.5,7.592 6.536,7.19 6.596,6.8 l 2.808,0 C 9.458,7.19 9.5,7.592 9.5,8 9.5,8.408 9.458,8.804 9.404,9.2 M 8,12.776 C 7.502,12.056 7.1,11.258 6.854,10.4 l 2.292,0 C 8.9,11.258 8.498,12.056 8,12.776 M 5.6,5.6 3.848,5.6 C 4.418,4.604 5.342,3.836 6.44,3.464 6.08,4.13 5.81,4.85 5.6,5.6 m -1.752,4.8 1.752,0 c 0.21,0.75 0.48,1.47 0.84,2.136 C 5.342,12.158 4.418,11.39 3.848,10.4 M 3.356,9.2 C 3.26,8.816 3.2,8.414 3.2,8 3.2,7.586 3.26,7.184 3.356,6.8 l 2.028,0 C 5.336,7.196 5.3,7.592 5.3,8 5.3,8.408 5.336,8.804 5.384,9.2 M 8,3.218 C 8.498,3.938 8.9,4.742 9.146,5.6 l -2.292,0 C 7.1,4.742 7.502,3.938 8,3.218 m 4.152,2.382 -1.77,0 C 10.19,4.85 9.914,4.13 9.554,3.464 10.658,3.842 11.576,4.604 12.152,5.6 M 8,2 C 4.682,2 2,4.7 2,8 A 6,6 0 0 0 8,14 6,6 0 0 0 14,8 6,6 0 0 0 8,2 Z"
     id="path4"
     style="fill:#bebebe;fill-opacity:1"
     inkscape:connector-curvature="0" />
</svg>
